X: 34
T: No_129_Catfish_Dance_Song_(c).krn
N: Derived from No_129_Catfish_Dance_Song_(c).krn
%%abc-version 2.0
%%abcx-abcm2ps-target-version 5.9.1 (29 Sep 2008)
%%abc-creator hum2abc beta
%%abcx-conversion-date 2019/03/15 08:38:45
%%humdrum-veritas 3046020591
%%humdrum-veritas-data 2982577695
%%linebreak <none>
%%barnumbers 0
L: 1/8
M: 2/4
K: F clef=bass
[K:clef=bass][M:2/4]CCA,2 [I:setbarnb 2]| 
C2DC | 
DCA,2 | 
A,3z | 
A,2A,2 | 
C2C2 | 
C3/A,/A,2 | 
C2C2 | 
CA,G,2 | 
G,F,D,2 | 
D,C, C, z | 
C,2D,2 | 
D,C,C,2 | 
C,4 | 
C,2C, z | 
D,2D,C, | 
D,C,A,,2 | 
A,,2z2 | 
C,2D,C, | 
D,C,A,,2 | 
C,4 | 
C,2C,2 | 
CCA,2 | 
A,2z2 :|]  



